public/logos/7F.svg

<?xml version="1.0" encoding="UTF-8"?>
<svg xmlns="http://www.w3.org/2000/svg" xmlns:xlink="http://www.w3.org/1999/xlink" width="176pt" height="43.1pt" viewBox="0 0 176 43.1" version="1.1">
<defs>
<clipPath id="clip1">
  <path d="M 47 10 L 176 10 L 176 43.101562 L 47 43.101562 Z M 47 10 "/>
</clipPath>
</defs>
<g id="surface1">
<g clip-path="url(#clip1)" clip-rule="nonzero">
<path style=" stroke:none;fill-rule:nonzero;fill:rgb(76.972961%,10.700989%,19.418335%);fill-opacity:1;" d="M 92.195312 25.109375 C 87.15625 25.066406 86.253906 25.851562 85.324219 30.695312 L 83.203125 42.816406 L 77.027344 42.816406 L 81.023438 20.3125 L 86.027344 19.140625 L 85.964844 21.65625 C 86.460938 20.644531 87.476562 19.273438 93.664062 19.195312 L 92.195312 25.109375 M 47.027344 42.816406 L 53.648438 42.816406 L 55.761719 30.96875 L 64.371094 30.96875 L 66.964844 25.199219 L 56.738281 25.199219 L 57.953125 18.527344 L 69.691406 18.527344 L 70.746094 12.71875 L 52.347656 12.71875 Z M 67.875 42.816406 L 74.007812 42.816406 L 77.972656 20.316406 L 71.839844 20.316406 Z M 99.972656 43.101562 C 104.117188 43.101562 108.300781 41.597656 108.300781 35.871094 C 108.300781 32.296875 106.472656 30.710938 103.019531 29.167969 C 100.949219 28.234375 99.730469 27.664062 99.730469 26.652344 C 99.730469 25.351562 100.382812 24.699219 101.964844 24.699219 C 104.199219 24.699219 105.902344 25.269531 107.121094 25.917969 L 110.289062 21.128906 C 108.542969 20.109375 105.984375 19.378906 102.453125 19.378906 C 98.429688 19.378906 93.71875 20.761719 93.71875 26.894531 C 93.71875 30.222656 95.589844 31.769531 98.714844 33.230469 C 101.761719 34.609375 102.453125 34.976562 102.453125 36.15625 C 102.453125 37.699219 101.519531 38.0625 100.179688 38.0625 C 97.292969 38.0625 95.101562 37.007812 93.640625 36.074219 L 90.511719 40.785156 C 92.703125 42.042969 95.667969 43.101562 99.972656 43.101562 Z M 149.972656 42.816406 L 156.105469 42.816406 L 160.074219 20.316406 L 153.941406 20.316406 Z M 72.261719 17.714844 L 78.480469 17.714844 L 79.71875 10.878906 L 73.234375 12.351562 Z M 154.355469 17.714844 L 160.578125 17.714844 L 161.816406 10.878906 L 155.328125 12.351562 Z M 159.121094 42.816406 L 165.296875 42.816406 L 167.421875 30.695312 C 168.363281 25.777344 169.269531 25.042969 174.527344 25.109375 L 176 19.191406 C 169.589844 19.230469 168.5625 20.632812 168.058594 21.65625 L 168.121094 19.140625 L 163.117188 20.3125 Z M 148.460938 42.816406 L 142.105469 42.816406 L 141.558594 37.960938 L 141.527344 37.65625 L 131.984375 37.65625 L 129.515625 42.816406 L 123.238281 42.816406 L 137.164062 14.339844 L 144.382812 12.71875 Z M 134.507812 32.03125 L 134.503906 32.035156 L 140.953125 32.035156 L 139.753906 21.75 L 139.175781 22.078125 Z M 120.484375 25.242188 L 125.316406 25.242188 L 126.292969 19.882812 L 121.417969 19.882812 L 122.527344 13.570312 L 117.394531 14.773438 L 115.703125 19.882812 L 112.089844 19.882812 L 111.15625 25.242188 L 114.351562 25.242188 L 112.558594 35.03125 C 111.328125 41.660156 112.550781 43.492188 119.097656 42.992188 C 120.277344 42.902344 121.136719 42.691406 121.78125 42.429688 L 123.222656 37.054688 C 122.613281 37.226562 121.839844 37.386719 120.925781 37.441406 C 118.65625 37.574219 118.382812 37.003906 118.769531 35.003906 L 120.484375 25.242188 "/>
</g>
<path style=" stroke:none;fill-rule:nonzero;fill:rgb(61.654663%,64.118958%,64.981079%);fill-opacity:1;" d="M 28.945312 10.402344 L 19.480469 10.402344 L 20.960938 2.246094 L 30.832031 0.00390625 L 28.945312 10.402344 M 14.359375 21.78125 L 3.144531 42.816406 L 13.652344 42.816406 L 19.371094 30.722656 L 20.652344 29.988281 L 22.117188 42.816406 L 32.660156 42.816406 L 28.789062 18.503906 Z M 0 12.71875 L 2.816406 18.9375 L 45.074219 15.414062 L 46.542969 12.71875 L 0 12.71875 "/>
</g>
</svg>

<svg xmlns="http://www.w3.org/2000/svg" width="176pt" height="43.1pt" viewBox="0 0 176 43.1"><defs><clipPath id="a"><path d="M47 10h129v33.102H47Zm0 0"/></clipPath></defs><g clip-path="url(#a)"><path d="M92.195 25.11c-5.039-.044-5.941.742-6.87 5.585l-2.122 12.121h-6.176l3.996-22.504 5.004-1.171-.062 2.515c.496-1.011 1.512-2.383 7.7-2.46zM47.027 42.816h6.621l2.114-11.847h8.61l2.593-5.77H56.738l1.215-6.672h11.738l1.055-5.808H52.348Zm20.848 0h6.133l3.965-22.5H71.84Zm32.098.286c4.144 0 8.328-1.504 8.328-7.23 0-3.575-1.828-5.161-5.281-6.704-2.07-.934-3.29-1.504-3.29-2.516 0-1.3.653-1.953 2.235-1.953 2.234 0 3.937.57 5.156 1.219l3.168-4.79c-1.746-1.019-4.305-1.75-7.836-1.75-4.023 0-8.734 1.384-8.734 7.517 0 3.328 1.87 4.875 4.996 6.335 3.047 1.38 3.738 1.747 3.738 2.926 0 1.543-.933 1.907-2.273 1.907-2.887 0-5.078-1.055-6.54-1.989l-3.128 4.711c2.191 1.258 5.156 2.317 9.46 2.317m50-.286h6.132l3.97-22.5h-6.134ZM72.262 17.715h6.218l1.239-6.836-6.485 1.473Zm82.093 0h6.223l1.238-6.836-6.488 1.473Zm4.766 25.101h6.176l2.125-12.12c.941-4.919 1.848-5.653 7.105-5.587L176 19.191c-6.41.04-7.437 1.442-7.941 2.465l.062-2.515-5.004 1.172Zm-10.66 0h-6.356l-.546-4.855-.032-.305h-9.543l-2.468 5.16h-6.278l13.926-28.476 7.219-1.621Zm-13.953-10.785-.004.004h6.45l-1.2-10.285-.578.328Zm-14.024-6.789h4.832l.977-5.36h-4.875l1.11-6.312-5.133 1.203-1.692 5.11h-3.613l-.934 5.36h3.196l-1.793 9.788c-1.23 6.63-.008 8.461 6.539 7.961 1.18-.09 2.039-.3 2.683-.562l1.442-5.375c-.61.172-1.383.332-2.297.386-2.27.133-2.543-.437-2.156-2.437z" style="stroke:none;fill-rule:nonzero;fill:#c41b32;fill-opacity:1"/></g><path d="M28.945 10.402H19.48l1.48-8.156L30.833.004zM14.36 21.782 3.145 42.815h10.507l5.72-12.093 1.28-.735 1.465 12.828H32.66l-3.87-24.312ZM0 12.718l2.816 6.219 42.258-3.524 1.469-2.695z" style="stroke:none;fill-rule:nonzero;fill:#9da4a6;fill-opacity:1"/></svg>
